X: 23470
T: Levenshulme Leap
R: reel
M: 4/4
K: Amajor
Aafe|:c3c- c2BA|BAFE Aafe|c2BA FBBB|BAFA- Aafe|
c3c- cABc|BAFE EFFE|FABc efec|1 B2cB Aafe:|2 B2AB cEEE||
EFAB cFFE|FFAB cEEE|ECB,A, B,B,A,B,|A,A,AB cEEE|
EFAB cFFE|FFEF zafe|fecB cecB|AEAB cEEE|
EFAB cFFE|FFAB cEEE|ECB,A, B,B,A,B,|A,A,AB cEEE|
EFAB cFFE|FFEF AAFA|BBAB ccBc|efcB Aafe||

